!!!OTL: 1373. Lustig ists, Soldat zu sein.
!!!ARE: Europa, Mitteleuropa, Deutschland, Franken, Wuerzburg
!!!SCT: E1373
!!!TXL: @@DE
!!!YEM: Copyright 1995, estate of Helmut Schaffrath.
**kern	**text
*ICvox	*
*M4/4	*
*met(c)	*
*k[f#]	*
*G:	*
=1	=1
!LO:TX:a:t=Mäßig.	!
!LO:TX:a:t=v. Ditfurth II, S. 193, aus Würʒburg.	!
{4.g	Sollt
8g	ich
4g	ei-
8gL	-nem
8bJ	.
=2	=2
4.b/	Bau-
8a	-ern
8aL	die-
8gJ	.
4g}	-nen
=3	=3
{4.b	und
8b	mein
4b	Brot
8bL	im
8ddJ	.
=4	=4
4.dd	Schweiß
8cc	ver-
8ccL	-die-
8bJ	.
4b}	-nen?
=5	=5
{4.a	Bru-
8a	-der,
4a	nein,
4a	das
=6	=6
4dd	mag
4dd	ich
2b}	nicht!
=7	=7
{4.g	Lie-
8b	-ber
4dd	will
4dd	ich
=8	=8
4.ee	in
8dd	dem
8ddL	Fel-
8ccJ	.
4cc}	-de
=9	=9
{4.a	mir
8b	ver-
4cc	-ſchaf-
4ee	-fen
=10	=10
4.dd	Brot
8cc	und
8ccL	Gel-
8bJ	.
4b}	-de,
=11	=11
{4.g	wo
8d	man
4g	von
4a	den
=12	=12
4.b/	Waf-
8a	-fen
2g}	ſpricht:
=13	=13
{4.dd	ei-
8cc	-nem
4b	Bau-
4b	-ern
=14	=14
4a	dien
4a	ich
2g}	nicht.
==	==
!!!AGN: Staende -, Soldaten -, Kriegs - Lied
!!!ONB: ESAC (Essen Associative Code) Database: ERK3
!!!AMT: simple quadruple
!!!AIN: vox
!!!EED: Helmut Schaffrath
!!!EEV: 1.0
!!!GTL: Staendelieder (Berufslieder). 1. Soldaten- und Kriegslieder. Soldatenlieder seit dem 30jaehr. Kriege.
!!!URL-scan: https://rosdok.uni-rostock.de/mcrviewer/recordIdentifier/rosdok_ppn745177999/iview2/phys_0246.iview2?x=-128.77276441889285&y=1065.919894454535&scale=0.5870222003877487&rotation=0&layout=singlePageLayout
!!!EEV: 2024/12/30
*-	*-
